X:6458
T:Goodbye Miss Goodavich
M:2/2
L:1/8
Q:225
C:Donnough Hennessy
D:Lunasa - Otherworl
K:G
eB|:BB cB AG AE|GA DE G2 B/2c/2d|ed ge ag ff|ga gf ed eB|
BB cB AB AE|GA DE G2 Ge|BG Fd AF FE|1BA GE GA B2:|
2BA GE GA BD||
:G/2A/2B ed cB AF|FF DF FF B/2^c/2d|fd aa ab gf|
ed ef ga b2|1bg ef g/2f/2e aB|fa ba gf ge|BG Fd AE G/2F/2E|
BA GE GA BD:|2z8||]
